epam-assets/icon-sources/18/editor-chart-timeline.svg

<svg xmlns="http://www.w3.org/2000/svg" width="18" height="18" fill="none" viewBox="0 0 18 18">
  <path fill="#6C6F80" fill-rule="evenodd" d="M1.5 1.5H3V15h13.5v1.5h-15v-15Zm3.75 6h7.5v2.25h-7.5V7.5Zm3 3.75h7.5v2.25h-7.5v-2.25ZM4.5 3h12v3H15V4.5H6V6H4.5V3Z" clip-rule="evenodd"/>
</svg>

<svg width="18" height="18" viewBox="0 0 18 18" fill="none" xmlns="http://www.w3.org/2000/svg">
<g id="18/editor-chart-timeline">
<path id="icon" fill-rule="evenodd" clip-rule="evenodd" d="M1.5 1.5H3V15H16.5V16.5H1.5V1.5ZM5.25 7.5H12.75V9.75H5.25V7.5ZM8.25 11.25H15.75V13.5H8.25V11.25ZM4.5 3H16.5V6H15V4.5H6V6H4.5V3Z" fill="#6C6F80"/>
</g>
</svg>
